X: 31
T: La Russe
C: R-13
M: C|
Z: Transcribed to abc by Mary Lou Knack
R: reel
K: G
D2|: "G"G2BB B2dd| d2g2 g2fg| "C"a2g2 e2c2| "D7"e2d2 dc BA|
     "G"G2BB B2dd| d2g2 g2fg| "C"e2d2 d2"D"FG|1 "G"A2G2G2D2 :|2\
     "G"A2G2 "Fine"G2 |] \K: D\
|:\
B2| "D"A2dd d2cB| A2aa a2gf| "A7"g2f2 g2e2| "D"fgag f2 d2|
    "D"A2dd d2cB| A2aa a2gf| "A7"g2f2 g2e2|1 "D"d6 :|2\
    "D"d2de "D7"d=c"DC al FIne"BA|]
%%text 9/1/98


